components/AnnouncementBar/logos/color-twitch.svg

<svg width="151" height="94" viewBox="0 0 151 115" fill="none" xmlns="http://www.w3.org/2000/svg">
<path fill-rule="evenodd" clip-rule="evenodd" d="M125.986 22.8792L119.974 28.9036L110.529 28.9036L105.377 34.0656V28.9036H97.6484V3.94989L125.986 3.94989V22.8792ZM94.2123 0.508072L92.4951 7.39214V38.368H100.224V42.6713H104.517L108.812 38.368H115.68L129.419 24.6025V0.508072L94.2123 0.508072Z" fill="#6441A5"/>
<path fill-rule="evenodd" clip-rule="evenodd" d="M107.094 21.1597H110.529V10.8325H107.094V21.1597ZM116.539 21.1597H119.974V10.8325H116.539V21.1597Z" fill="#6441A5"/>
<path fill-rule="evenodd" clip-rule="evenodd" d="M147.453 60.7406L141.443 54.7189H130.279V46.9738H120.831V82.2525H130.279V64.182H138.006V82.2525H147.453V60.7406ZM117.399 54.7189H102.801L96.7895 60.7406V76.2281L102.801 82.2525H117.399V72.7885H106.234V64.182H117.399V54.7189ZM93.3547 54.7189L85.6276 54.7189V46.9738H76.1803V76.2281L82.1915 82.2525H93.3547V72.7885H85.6276V64.182H93.3547V54.7189ZM72.7456 46.9738H63.3009V51.2775H72.7456V46.9738ZM72.7456 54.7189H63.3009L63.3009 82.2521L72.7456 82.2521V54.7189ZM59.8661 54.7189H50.4206L50.4206 72.7885H46.9867L46.9867 54.7189H37.5407L37.5407 72.7885H34.1072L34.1072 54.7189L24.6599 54.7189L24.6599 82.2525H53.8562L59.8661 76.2281L59.8661 54.7189ZM21.2251 54.7189H13.4976V46.9738H4.05211L4.05211 76.2281L10.0629 82.2525H21.2251L21.2251 72.7885H13.4976L13.4976 64.182H21.2251V54.7189ZM150.885 59.0195V84.8324L138.006 93.4376H129.419V89.1339L123.408 93.4376H115.681V89.1339L111.389 93.4376H97.6496L93.3547 89.1339L92.495 93.4376H80.4752L75.5598 89.1339L75.2845 93.4376H61.6604L61.1785 89.1339L57.4905 93.4376H36.681L32.387 91.7165V93.4376H21.2251L8.34437 85.6917L0.616882 77.9515L0.616882 43.5329H16.9329L24.6599 51.2775L59.8661 51.2775V43.5329L89.0611 43.5329V51.2775H96.7895V55.5786L101.084 51.2775H109.669L117.399 43.5329H133.713V51.2775H143.159L150.885 59.0195Z" fill="#6441A5"/>
</svg>

<svg xmlns="http://www.w3.org/2000/svg" width="151" height="94" viewBox="0 0 151 115">
  <path fill="#6441A5" fill-rule="evenodd" d="m125.986 22.88-6.012 6.024h-9.445l-5.152 5.162v-5.162h-7.729V3.95h28.338v18.93ZM94.212.507l-1.717 6.884v30.976h7.729v4.303h4.293l4.295-4.303h6.868l13.739-13.766V.508H94.212Z" clip-rule="evenodd"/>
  <path fill="#6441A5" fill-rule="evenodd" d="M107.094 21.16h3.435V10.832h-3.435V21.16Zm9.445 0h3.435V10.832h-3.435V21.16Zm30.914 39.58-6.01-6.021h-11.164v-7.745h-9.448v35.279h9.448V64.181h7.727v18.07h9.447V60.742Zm-30.054-6.021h-14.598L96.79 60.74v15.487l6.011 6.025h14.598v-9.465h-11.165v-8.606h11.165v-9.463Zm-24.044 0h-7.727v-7.745H76.18v29.254l6.011 6.025h11.164v-9.465h-7.727v-8.606h7.727v-9.463Zm-20.61-7.745h-9.444v4.304h9.445v-4.304Zm0 7.745h-9.444v27.533h9.445V54.72Zm-12.879 0h-9.445v18.07h-3.434v-18.07H37.54v18.07h-3.434v-18.07H24.66v27.533h29.196l6.01-6.024v-21.51Zm-38.64 0h-7.728v-7.745H4.052v29.254l6.01 6.025h11.163v-9.465h-7.727v-8.606h7.727v-9.463Zm129.659 4.3v25.813l-12.879 8.606h-8.587v-4.304l-6.011 4.304h-7.727v-4.304l-4.292 4.304h-13.74l-4.294-4.304-.86 4.304h-12.02l-4.915-4.304-.276 4.304H61.66l-.481-4.304-3.689 4.304H36.681l-4.294-1.722v1.722H21.225l-12.88-7.746-7.728-7.74v-34.42h16.316l7.727 7.746h35.206v-7.745h29.195v7.745h7.728v4.3l4.295-4.3h8.585l7.73-7.745h16.314v7.745h9.446l7.726 7.742Z" clip-rule="evenodd"/>
</svg>
